src/cmd/lc_selectdata.svg

<svg viewBox="0 0 24 24" xmlns="http://www.w3.org/2000/svg"><path d="m12 4c-4.418278 0-8 .8954258-8 2v4 8c0 1.1046 3.581722 2 8 2s8-.8954 8-2v-8-4c0-1.1045742-3.581722-2-8-2zm0 1c3.865993 0 7 .4477153 7 1s-3.134007 1-7 1c-3.8659932 0-7-.4477153-7-1s3.1340068-1 7-1zm-7 1.9375c1.3529566.6249199 3.9580758 1.0625 7 1.0625 3.041924 0 5.647043-.4375801 7-1.0625v3.0625c0 .5523-3.134007 1-7 1-3.8659932 0-7-.4477-7-1v-.9375zm0 4c1.3529566.624921 3.9580758 1.0625 7 1.0625 3.041924 0 5.647043-.437579 7-1.0625v3.0625c0 .5523-3.134007 1-7 1-3.8659932 0-7-.4477-7-1zm0 4c1.3529566.624921 3.9580758 1.0625 7 1.0625 3.041924 0 5.647043-.437579 7-1.0625v3.0625c0 .5523-3.134007 1-7 1-3.8659932 0-7-.4477-7-1z" fill="#762572"/></svg>

<?xml version="1.0" encoding="UTF-8" standalone="no"?>
<svg
   xmlns:dc="http://purl.org/dc/elements/1.1/"
   xmlns:cc="http://creativecommons.org/ns#"
   xmlns:rdf="http://www.w3.org/1999/02/22-rdf-syntax-ns#"
   xmlns:svg="http://www.w3.org/2000/svg"
   xmlns="http://www.w3.org/2000/svg"
   xmlns:sodipodi="http://sodipodi.sourceforge.net/DTD/sodipodi-0.dtd"
   xmlns:inkscape="http://www.inkscape.org/namespaces/inkscape"
   viewBox="0 0 24 24"
   version="1.1"
   id="svg4"
   sodipodi:docname="lc_selectdata.svg"
   inkscape:export-filename="/home/jupiter007/Libreoffice yaru theme fullcolor/build/cmd/lc_selectdata.png"
   inkscape:export-xdpi="95"
   inkscape:export-ydpi="95"
   inkscape:version="0.92.5 (2060ec1f9f, 2020-04-08)">
  <metadata
     id="metadata10">
    <rdf:RDF>
      <cc:Work
         rdf:about="">
        <dc:format>image/svg+xml</dc:format>
        <dc:type
           rdf:resource="http://purl.org/dc/dcmitype/StillImage" />
      </cc:Work>
    </rdf:RDF>
  </metadata>
  <defs
     id="defs8" />
  <sodipodi:namedview
     pagecolor="#ffffff"
     bordercolor="#666666"
     borderopacity="1"
     objecttolerance="10"
     gridtolerance="10"
     guidetolerance="10"
     inkscape:pageopacity="0"
     inkscape:pageshadow="2"
     inkscape:window-width="1920"
     inkscape:window-height="1011"
     id="namedview6"
     showgrid="false"
     inkscape:zoom="9.8333333"
     inkscape:cx="0.66101695"
     inkscape:cy="12"
     inkscape:window-x="0"
     inkscape:window-y="32"
     inkscape:window-maximized="1"
     inkscape:current-layer="svg4" />
  <path
     style="fill:#f2cbf8;fill-opacity:1"
     id="path819"
     d="m 12,3.9999999 c -4.4182781,0 -8.0000001,0.8954258 -8.0000001,2 V 10 18 c 0,1.1046 3.581722,2 8.0000001,2 4.418278,0 8,-0.8954 8,-2 V 10 5.9999999 c 0,-1.1045742 -3.581722,-2 -8,-2 z"
     inkscape:connector-curvature="0"
     sodipodi:nodetypes="sscssscss" />
  <path
     inkscape:connector-curvature="0"
     d="m 12,3.9999999 c -4.4182781,0 -8.0000001,0.8954258 -8.0000001,2 V 10 18 c 0,1.1046 3.581722,2 8.0000001,2 4.418278,0 8,-0.8954 8,-2 V 10 5.9999999 c 0,-1.1045742 -3.581722,-2 -8,-2 z m 0,1 c 3.865993,0 7,0.4477153 7,1 C 19,6.552285 15.865993,7 12,7 8.1340067,7 4.9999999,6.552285 4.9999999,5.9999999 c 0,-0.5522847 3.1340068,-1 7.0000001,-1 z M 4.9999999,6.9375 C 6.3529565,7.56242 8.9580757,8 12,8 15.041924,8 17.647043,7.56242 19,6.9375 V 10 c 0,0.5523 -3.134007,1 -7,1 C 8.1340067,11 4.9999999,10.5523 4.9999999,10 V 9.0625 Z m 0,4 C 6.3529565,11.562421 8.9580757,12 12,12 c 3.041924,0 5.647043,-0.437579 7,-1.0625 V 14 c 0,0.5523 -3.134007,1 -7,1 -3.8659933,0 -7.0000001,-0.4477 -7.0000001,-1 z m 0,4 C 6.3529565,15.562421 8.9580757,16 12,16 c 3.041924,0 5.647043,-0.437579 7,-1.0625 V 18 c 0,0.5523 -3.134007,1 -7,1 -3.8659933,0 -7.0000001,-0.4477 -7.0000001,-1 z"
     id="path2"
     style="fill:#8e03a3;fill-opacity:1" />
  <path
     style="opacity:1;fill:#ffffff;fill-opacity:1;stroke:#ffffff;stroke-width:2;stroke-linejoin:round;stroke-miterlimit:4;stroke-dasharray:none"
     id="path834"
     d="m 15.0002,13.000185 v 10 l 3.199219,-4 H 23.0002 Z"
     inkscape:connector-curvature="0" />
  <path
     d="m 15.0002,13.000185 v 10 l 3.199219,-4 H 23.0002 Z"
     id="path4"
     style="fill:#232629;fill-opacity:1"
     inkscape:connector-curvature="0" />
</svg>
